icon-svg/clock-euro.svg

<svg xmlns="http://www.w3.org/2000/svg" viewBox="0 0 24 24"><path fill="#44739e" d="M8.467 11.714a2.51 2.51 0 0 0-2.015 1.631c-.124.347-.213.463-.374.49-.249.036-.347.151-.347.427 0 .171.053.206.249.206.232 0 .25.027.214.267-.027.178-.089.267-.2.267-.169 0-.267.17-.267.455 0 .134.062.17.294.17.267 0 .3.026.392.383a2.66 2.66 0 0 0 3.226 1.666l.455-.107v-.632c0-.589-.009-.616-.161-.482a1.93 1.93 0 0 1-1.292.295 1.6 1.6 0 0 1-1.029-.852l-.089-.267h.918c.883 0 .927-.009.981-.206.106-.419.106-.419-.972-.419H7.424v-.534h1.114c.829 0 1.114-.027 1.114-.117a2 2 0 0 1 .054-.311c.053-.2.053-.2-1.07-.2a5 5 0 0 1-1.124-.059 2 2 0 0 1 .749-.953 1.9 1.9 0 0 1 1.401-.009c.294.16.285.169.42-.508.08-.419.08-.419-.201-.508a3.2 3.2 0 0 0-1.414-.093m2.79-3.143v3.717l2.629 2.629 2.634 2.629.553-.561.561-.553-2.433-2.433-2.424-2.424V4.846h-1.52Zm-.58-6.48a9.83 9.83 0 0 0-5.535 2.684 9.3 9.3 0 0 0-2.085 2.789 9.98 9.98 0 0 0 0 8.908A9.1 9.1 0 0 0 5 19.133 9.988 9.988 0 1 0 18.868 4.757a9.89 9.89 0 0 0-8.191-2.666m3.341 1.685a10.2 10.2 0 0 1 3.084 1.453 8.9 8.9 0 0 1 3.173 4.84 9.3 9.3 0 0 1-.045 4.055 8.63 8.63 0 0 1-6.266 6.159 9.3 9.3 0 0 1-4.05-.044 8.59 8.59 0 0 1-6.113-6.115 6.4 6.4 0 0 1-.232-2.102 6.4 6.4 0 0 1 .232-2.102 9.9 9.9 0 0 1 1.226-2.721 9.17 9.17 0 0 1 4.447-3.292 9 9 0 0 1 4.544-.131"/></svg>

<?xml version="1.0" encoding="UTF-8"?>
<svg width="24px" fill="#44739e" height="24px" viewBox="0 0 24 24" version="1.1" xmlns="http://www.w3.org/2000/svg" xmlns:xlink="http://www.w3.org/1999/xlink">
            <path d="m 8.454,11.7 a 2.51,2.51 0 0 0 -2.013,1.629 c -0.124,0.347 -0.213,0.463 -0.374,0.49 -0.249,0.036 -0.347,0.151 -0.347,0.427 0,0.17 0.053,0.205 0.249,0.205 0.232,0 0.25,0.027 0.214,0.267 -0.027,0.178 -0.089,0.267 -0.2,0.267 -0.169,0 -0.267,0.17 -0.267,0.455 0,0.133 0.062,0.169 0.294,0.169 0.267,0 0.3,0.026 0.392,0.383 a 2.659,2.659 0 0 0 3.223,1.665 l 0.454,-0.107 v -0.632 c 0,-0.588 -0.009,-0.615 -0.16,-0.481 A 1.93,1.93 0 0 1 8.628,16.731 1.585,1.585 0 0 1 7.6,15.88 L 7.511,15.613 h 0.917 c 0.882,0 0.926,-0.009 0.98,-0.205 0.106,-0.419 0.106,-0.419 -0.971,-0.419 H 7.412 v -0.534 h 1.113 c 0.828,0 1.113,-0.027 1.113,-0.116 a 2.029,2.029 0 0 1 0.054,-0.311 c 0.053,-0.2 0.053,-0.2 -1.069,-0.2 A 5.006,5.006 0 0 1 7.5,13.769 a 1.977,1.977 0 0 1 0.748,-0.952 1.9,1.9 0 0 1 1.4,-0.009 c 0.294,0.16 0.285,0.169 0.419,-0.508 0.08,-0.418 0.08,-0.418 -0.2,-0.507 A 3.16,3.16 0 0 0 8.454,11.7 Z m 2.787,-3.14 v 3.713 l 2.627,2.627 2.632,2.627 0.552,-0.561 0.561,-0.552 -2.431,-2.431 -2.422,-2.422 V 4.838 H 11.241 Z M 10.662,2.086 a 9.819,9.819 0 0 0 -5.53,2.681 9.292,9.292 0 0 0 -2.083,2.787 9.972,9.972 0 0 0 0,8.9 A 9.1,9.1 0 0 0 4.99,19.112 9.979,9.979 0 1 0 18.846,4.749 9.88,9.88 0 0 0 10.662,2.086 Z M 14,3.769 a 10.227,10.227 0 0 1 3.081,1.452 8.885,8.885 0 0 1 3.17,4.835 9.279,9.279 0 0 1 -0.045,4.052 8.615,8.615 0 0 1 -6.26,6.153 A 9.3,9.3 0 0 1 9.9,20.217 8.578,8.578 0 0 1 3.792,14.108 6.421,6.421 0 0 1 3.56,12.008 6.418,6.418 0 0 1 3.792,9.908 9.878,9.878 0 0 1 5.017,7.189 9.165,9.165 0 0 1 9.46,3.9 9.015,9.015 0 0 1 14,3.769 Z"/>

</svg>
